X:114
T:Padlock, The
M:6/8
L:1/8
B:Thompson's Compleat Collection of 200 Favourite Country Dances, vol. 3 (London, 1773)
Z:Transcribed and edited by Flynn Titford-Mock, 2007
Z:abc's:AK/Fiddler's Companion
K:D
g | f2 fd gefd | f2 fd eAcA | f2 fd gefd | (B/c/d/B/) (c/d/e/c/) d3 :|
|: f/g/ | afdg (f/g/a/f/) df | ecAd (c/d/e/c/) Af/g/ | afdg (f/g/a/f/) dA | BABc d3 :|

